X:11
T: Cedar Grove
C: Larry Cusick
M: C|
K: D
d2 af gfec | dBAF GEED | A,B, DE FAde | fgaf g2fg |
af~f2 gfec |  dBAF GEED | A,B,DE FAdf | gfec d4 :|
e3f edcd | efge afgf | e2ef edcd | egfe d2cd |
e3f edcd | efge afge | afge fdec | dfec d4 :|
